X: 99
T: The Irish Rover
N: page 33
N: heptatonic
N: matches 413
R: march
M: 4/4
L: 1/8
K: D
 FE\
|: "D"D2 FG  A2 de | f2 ed  "G"d2 cB | "D"A2 BG  F2 GF | "A7"E6 AF | "D"D2 FG  A2 de |
 f2 ed  "G"d2 cB | "D"A2 BG  F2 GF | D2 D2 D2||A2|\
 "D" d3e f2d2|"A7"e3c A4|
"D"d3e f2d2|"A7" e3c AGFE|\
 "D" D2 FG A2 de|f2 AF "G" G2 FE|"D" D2 FA d2 f2|"A7" e4 "D" d2|
